icon-themes/sifr_svg/cmd/sc_assignmacro.svg

<svg viewBox="0 0 16 16" xmlns="http://www.w3.org/2000/svg"><path d="m8 1c-3.8659932 0-7 3.1340068-7 7 0 3.865993 3.1340068 7 7 7v-2c-2.7614237 0-5-2.238576-5-5 0-2.7614237 2.2385763-5 5-5 2.761424 0 5 2.2385763 5 5h2c0-3.8659932-3.134007-7-7-7zm-2 3v8l5-4zm5 5v2h-2v2h2v2h2v-2h2v-2h-2v-2z" fill="#555753"/></svg>

<svg xmlns="http://www.w3.org/2000/svg" viewBox="0 0 16 16">
  <path
     style="fill:#555753"
     d="M 8 1 C 4.1340068 1 1 4.1340068 1 8 C 1 11.865993 4.1340068 15 8 15 L 8 13 C 5.2385763 13 3 10.761424 3 8 C 3 5.2385763 5.2385763 3 8 3 C 10.761424 3 13 5.2385763 13 8 L 15 8 C 15 4.1340068 11.865993 1 8 1 z M 6 4 L 6 12 L 11 8 L 6 4 z M 11 9 L 11 11 L 9 11 L 9 13 L 11 13 L 11 15 L 13 15 L 13 13 L 15 13 L 15 11 L 13 11 L 13 9 L 11 9 z "
     />
</svg>
